X:136
T:Roderick Dhu, the Clanalpin Chief
T:Ruairi Dubh
R:Slow Air
S:Simon Fraser Collection
N:No.76
O:Scottish
M:C
L:1/8
Q:1/4=120
K:D Minor
D>E|F2 E2 D2 F>G|A2 d>e d2 f>d|c<AGF E2 FD|A,2 CA, C2 D>E|
F2E2D2F>G|A2 d>e d2 f>d|c<AGF E2 F>D|A2 ~D>E D2:|
A>B|A>Bc>d c2 fc|A>Bc>d c2 f>e|d>ef>g a>^gac|A2 ~de d2 f>g|
a>gf>e dcBA|F/E/F/G/ A/c/d/e/ f2 ag/4f/4e/4d/4|c<AGF E2 F>D|
A,2 D>E D2||

